StripePaymentsUI/StripePaymentsUI/Resources/StripePaymentsUI.xcassets/Cards/stp_card_diners_template.imageset/Diners Club-bw.svg

<svg fill="none" height="18" viewBox="0 0 26 18" width="26" xmlns="http://www.w3.org/2000/svg"><path d="m23.0492 17.0001h-19.99444c-.52678.0044-1.03373-.2043-1.40933-.5801-.37559-.3759-.58906-.8882-.59343-1.4242v-11.99147c.00437-.53602.21784-1.04831.59343-1.42417.3756-.37587.88255-.584506 1.40933-.58009h19.99444c.5268-.004416 1.0338.20422 1.4094.58009.3756.37586.589.88815.5934 1.42417v11.99987c-.0136 1.1129-.909 2.0052-2.0028 1.9959z" stroke="#000" stroke-width=".5"/><path d="m11.0541 3.05183v-.016h4v.016c3.1354.22944 5.5621 2.84018 5.5621 5.984 0 3.14377-2.4267 5.75457-5.5621 5.98397v.016h-4v-.016c-3.13548-.2294-5.56216-2.8402-5.56216-5.98397 0-3.14382 2.42668-5.75456 5.56216-5.984z" fill="#000"/><path d="m12.6542 12.4279c1.4352-.5103 2.394-1.8687 2.394-3.39202 0-1.5233-.9588-2.88172-2.394-3.392zm-2.4-6.78402c-1.43534.51028-2.39409 1.8687-2.39409 3.392 0 1.52332.95875 2.88172 2.39409 3.39202zm1.2 8.59202c-2.87193 0-5.20005-2.3281-5.20005-5.20002 0-2.87188 2.32812-5.2 5.20005-5.2 2.8718 0 5.2 2.32812 5.2 5.2 0 2.87192-2.3282 5.20002-5.2 5.20002z" fill="#fff"/></svg>

<svg width="26" height="18" viewBox="0 0 26 18" fill="none" xmlns="http://www.w3.org/2000/svg">
<path d="M23.0492 17.0001H3.05476C2.52798 17.0045 2.02103 16.7958 1.64543 16.42C1.26984 16.0441 1.05637 15.5318 1.052 14.9958V3.00433C1.05637 2.46831 1.26984 1.95602 1.64543 1.58016C2.02103 1.20429 2.52798 0.995654 3.05476 1.00007H23.0492C23.576 0.995654 24.083 1.20429 24.4586 1.58016C24.8342 1.95602 25.0476 2.46831 25.052 3.00433V15.0042C25.0384 16.1171 24.143 17.0094 23.0492 17.0001Z" stroke="black" stroke-width="0.5"/>
<path d="M11.0541 3.05183V3.03583H15.0541V3.05183C18.1895 3.28127 20.6162 5.89201 20.6162 9.03583C20.6162 12.1796 18.1895 14.7904 15.0541 15.0198V15.0358H11.0541V15.0198C7.91862 14.7904 5.49194 12.1796 5.49194 9.03583C5.49194 5.89201 7.91862 3.28127 11.0541 3.05183Z" fill="black"/>
<path d="M12.6542 12.4279C14.0894 11.9176 15.0482 10.5592 15.0482 9.03588C15.0482 7.51258 14.0894 6.15416 12.6542 5.64388V12.4279ZM10.2542 5.64388C8.81886 6.15416 7.86011 7.51258 7.86011 9.03588C7.86011 10.5592 8.81886 11.9176 10.2542 12.4279V5.64388ZM11.4542 14.2359C8.58227 14.2359 6.25415 11.9078 6.25415 9.03588C6.25415 6.164 8.58227 3.83588 11.4542 3.83588C14.326 3.83588 16.6542 6.164 16.6542 9.03588C16.6542 11.9078 14.326 14.2359 11.4542 14.2359Z" fill="white"/>
</svg>
